X: 31076
T: Paddy Fahey's
R: reel
M: 4/4
K: Gmajor
|:G,2 B,D GBdB|c2 ag fgdc|B~G3 BcdB|cBAG FDCA,|
(3G,G,G, B,D GBdB|c2 ag fgdc|B~G3 BcdB|1 cAFA G2 DB,:|2 cAFA G2 Bc||
|:dgfa gdBG|FGAB c2 Bc|Aaag a3g|fdad bdad|
(3ggg fa gdBG|FGAB c2 Bc|d~g3 defd|1 cAFA G2 Bc:|2 cAFA G2 DB,||

